X:2
T:Red is the rose/Galway bay
C:Trad. Irish
M:4/4
K:G
"G"G4G2A2|"Gmaj7"B6cB|"Am"A3BA2G2|
"C"EG7|"G"G4G2A2|"Em"G4B2d2|"Bm"e3-e2fe2|d3-d2Bd2|
"C"e4e2d2|"G"B6d2|"Am"c3BA2G2|"C"EG3-G2G2|
"G"G3GB2d2|"C"e4"G"d3B|"D"A3-A2BA2|"G"G8:|
z6D2G2|"G"B4B3B|B3BA2G2|"D"G4F4|z4z2D2|
"Am"d4d2e2|"D"d2A2B2c2|"G"B8|z4G2A2|B3BB3B|
B3dc2B2|A4E4|"Am"z4z2E2|""D2D2F2A2|c2c2B2A2|"G"G||
